!!!COM: Music21
!!!OTL: A Farándula
!!!OMV: pezas_mazurcas_a-farandula_a-farandula-partitura.musicxml
**kern
*I"Bagpipes
*I'Bag
*clefG^2
*k[]
*M3/4
=1
!LO:TX:a:t=Moderato
2ccc
8ggL
8aaJ
=
4ff
4ee
4ff
=
[2.gg
=
2gg]
4aa
=
2bb-X
8ggL
8aaJ
=
4ff
4gg
4dd
=
[2.cc
=
2.cc]
=
2ccc
8ggL
8aaJ
=
4ff
4ee
4ff
=
[2.gg
=
2gg]
4aa
=
2bb-X
8ggL
8aaJ
!!linebreak:original
=
4ff
4gg
4dd
=
4cc
8ggL
8aaJ
8ggL
8ffJ
=||
8eeL
8ddJ
8eeL
8ffJ
4gg
=
4cc
8ggL
8aaJ
8ggL
8ffJ
=
8eeL
8ddJ
8eeL
8ffJ
4gg
=
4ff
4gg
4dd
=
4cc
8ggL
8aaJ
8ggL
8ffJ
=||
8eeL
8ddJ
8eeL
8ffJ
4gg
=
4cc
8ggL
8aaJ
8ggL
8ffJ
!!linebreak:original
=
8eeL
8ddJ
8eeL
8ffJ
4gg
=||
4ff
4gg
4dd
=||
2.cc
==
*-
